public/images/poses-sm/Triangle.svg

<svg width="800" height="900" fill="none" xmlns="http://www.w3.org/2000/svg"><path d="M348.341 463.418s-30.018 5.004-65.041 40.025c-35.021 35.022-62.539 87.554-62.539 87.554s-5.002 12.508-12.507 17.511-40.025 30.018-52.533 55.034c-12.507 25.016-32.52 67.541-32.52 67.541s-7.505 10.007 15.009 32.52c0 0 6.079 6.077 29.173 5.47 3.89-.1 6.211-4.438 4.128-7.722-4.69-7.401-13.288-19.324-25.796-30.268l95.058-97.56s95.059-82.551 100.063-92.557c14.779 23.222 33.431 45.11 54.246 63.068 4.52 3.898 9.023 7.875 14.058 11.113 5.51 3.548 13.9 9.287 19.251 13.374 6.281 4.787 7.162 8.965 12.481 14.588 4.511 4.774 9.401 9.197 14.365 13.498 12.714 11.012 26.177 21.196 40.02 30.738 14.001 9.643 29.402 20.798 45.703 26.226 0 0 15.009 5.004 20.012 17.51 5.004 12.507 20.013 20.013 35.022 20.013 15.01 0 22.514-2.501 45.028 0 7.031.78 25.016-5.003 17.511-7.504-7.506-2.501-70.044-27.516-77.548-30.019-6.562-2.188-135.792-144.524-167.603-180.111-4.571-5.11 5.002-12.507 5.002-12.507l-70.043-57.535Z" fill="#fff" stroke="#000" stroke-width="5" stroke-miterlimit="10"/><path d="M348.341 463.418s-30.018 5.004-65.041 40.025c-35.021 35.022-62.539 87.554-62.539 87.554s-5.002 12.508-12.507 17.511-40.025 30.018-52.533 55.034c-12.507 25.016-32.52 67.541-32.52 67.541s-7.505 10.007 15.009 32.52c0 0 6.079 6.077 29.173 5.47 3.89-.1 6.211-4.438 4.128-7.722-4.69-7.401-13.288-19.324-25.796-30.268l95.058-97.56s95.059-82.551 100.063-92.557c14.779 23.222 33.431 45.11 54.246 63.068 4.52 3.898 9.023 7.875 14.058 11.113 5.51 3.548 13.9 9.287 19.251 13.374 6.281 4.787 7.162 8.965 12.481 14.588 4.511 4.774 9.401 9.197 14.365 13.498 12.714 11.012 26.177 21.196 40.02 30.738 14.001 9.643 29.402 20.798 45.703 26.226 0 0 15.009 5.004 20.012 17.51 5.004 12.507 20.013 20.013 35.022 20.013 15.01 0 22.514-2.501 45.028 0 7.031.78 25.016-5.003 17.511-7.504-7.506-2.501-70.044-27.516-77.548-30.019-6.562-2.188-135.792-144.524-167.603-180.111-4.571-5.11 5.002-12.507 5.002-12.507l-70.043-57.535Z" stroke="#000" stroke-width="5" stroke-miterlimit="10"/><path d="M631.81 432.447c15.136 2.019 52.538-1.883 40.959-42.24-7.354-25.616-14.756-64.555 1.367-82.861 16.129-18.306-40.362-26.875-57.569.42-17.208 27.294-13.783 62.941 5.644 82.823 19.425 19.88 9.599 41.858 9.599 41.858Z" fill="#100200" stroke="#000" stroke-width="5" stroke-miterlimit="10"/><path d="M453.406 400.879c9.543-3.232 24.505-4.854 27.146-8.663 2.634-3.809 5.68-68.034 9.321-83.849 3.64-15.816 13.887-55.258 24.937-76.5 11.049-21.243 22.098-42.486 25.738-58.3 3.64-15.815-.472-48.4 22.431-46.486 32.358 2.701-5.646 39.827-9.116 53.642-3.471 13.817-19.666 68.88-25.775 86.507-6.107 17.625-8.746 21.435-8.617 47.639.129 26.206 5.962 95.201 5.962 95.201l-28.133 3.694-46.55 2.159 2.656-15.044Z" fill="#fff" stroke="#000" stroke-width="5" stroke-miterlimit="10"/><path d="M453.406 400.879c9.543-3.232 24.505-4.854 27.146-8.663 2.634-3.809 5.68-68.034 9.321-83.849 3.64-15.816 13.887-55.258 24.937-76.5 11.049-21.243 22.098-42.486 25.738-58.3 3.64-15.815-.472-48.4 22.431-46.486 32.358 2.701-5.646 39.827-9.116 53.642-3.471 13.817-19.666 68.88-25.775 86.507-6.107 17.625-8.746 21.435-8.617 47.639.129 26.206 5.962 95.201 5.962 95.201l-28.133 3.694-46.55 2.159 2.656-15.044Z" stroke="#000" stroke-width="5" stroke-miterlimit="10"/><path d="M462.395 470.806c8.865 4.91 29.07 12.845 31.024 17.176 1.959 4.331-5.873 70.348-4.954 87.092.922 16.742 4.37 58.701 11.68 82.228 7.311 23.529 14.62 47.061 15.539 63.804.922 16.743-8.627 49.283 14.274 51.195 32.356 2.7 1.156-41.575.061-56.25-1.095-14.674-7.769-73.569-10.818-92.575-3.048-19.007-5.005-23.338-.459-50.043 4.554-26.704 21.94-96.089 21.94-96.089l-27.112-8.515-45.535-10.056-5.64 12.033Z" fill="#fff" stroke="#000" stroke-width="5" stroke-miterlimit="10"/><path d="M462.395 470.806c8.865 4.91 29.07 12.845 31.024 17.176 1.959 4.331-5.873 70.348-4.954 87.092.922 16.742 4.37 58.701 11.68 82.228 7.311 23.529 14.62 47.061 15.539 63.804.922 16.743-8.627 49.283 14.274 51.195 32.356 2.7 1.156-41.575.061-56.25-1.095-14.674-7.769-73.569-10.818-92.575-3.048-19.007-5.005-23.338-.459-50.043 4.554-26.704 21.94-96.089 21.94-96.089l-27.112-8.515-45.535-10.056-5.64 12.033Z" stroke="#000" stroke-width="5" stroke-miterlimit="10"/><path d="M541.821 472.448c.554 4.896-1.272 6.44-1.272 6.44s-18.035-6.142-32.62 1.912c-14.584 8.057-16.122 26.476-16.506 31.081 0 0-58.451 1.016-73.039 9.074-32.999-13.878-56.858-32.774-70.044-57.536 11.9-3.644 45.427-31.568 57.712-39.818 12.277-8.247 47.352-22.72 47.352-22.72s16.739 4.885 37.46 6.616c20.724 1.732 34.733.583 34.733.583s-.578 6.908 6.137 9.789c6.716 2.879 41.447 3.461 53.344-.182 11.897-3.646-7.296 31.849-7.296 31.849s-35.923-9.114-36.144 7.299l-.166 6.687c-.075 2.975.016 5.971.349 8.926Z" fill="#fff" stroke="#000" stroke-width="5" stroke-miterlimit="10"/><path d="M541.821 472.448c.554 4.896-1.272 6.44-1.272 6.44s-18.035-6.142-32.62 1.912c-14.584 8.057-16.122 26.476-16.506 31.081 0 0-58.451 1.016-73.039 9.074-32.999-13.878-56.858-32.774-70.044-57.536 11.9-3.644 45.427-31.568 57.712-39.818 12.277-8.247 47.352-22.72 47.352-22.72s16.739 4.885 37.46 6.616c20.724 1.732 34.733.583 34.733.583s-.578 6.908 6.137 9.789c6.716 2.879 41.447 3.461 53.344-.182 11.897-3.646-7.296 31.849-7.296 31.849s-35.923-9.114-36.144 7.299l-.166 6.687c-.075 2.975.016 5.971.349 8.926Z" stroke="#000" stroke-width="5" stroke-miterlimit="10"/><path d="M588.672 420.152c8.149-1.891 14.042 3.467 23.161 4.699 14.481 1.953 23.156 22.845 17.646 38.217-7.273 20.301-81.335-.466-79.077-12.803 1.332-7.306 11.115-18.453 25.641-24.371 4.67-1.904 12.629-5.742 12.629-5.742Z" fill="#fff" stroke="#000" stroke-width="5" stroke-miterlimit="10"/><path d="M588.672 420.152c8.149-1.891 14.042 3.467 23.161 4.699 14.481 1.953 23.156 22.845 17.646 38.217-7.273 20.301-81.335-.466-79.077-12.803 1.332-7.306 11.115-18.453 25.641-24.371 4.67-1.904 12.629-5.742 12.629-5.742Z" stroke="#000" stroke-width="5" stroke-miterlimit="10"/><path d="M618.324 469.17c-12.861-4.092-33.459-20.535-24.409-35.521 10.172-16.848-2.952-12.63-6.813-12.215-3.864.411-12.989 7.366-13.426 5.255-.437-2.111 16.917-22.517 36.309-19.474 19.392 3.042 26.108 12.751 28.987 24.127 2.883 11.381-.985 27.46-9.801 35.345-8.816 7.888-10.847 2.483-10.847 2.483Z" fill="#100200" stroke="#000" stroke-width="5" stroke-miterlimit="10"/><path d="M526.147 411.892c-10.913 9.234-13.485 21.363-8.233 32.642 7.867 16.89 22.812 20.156 22.812 20.156" stroke="#000" stroke-width="5" stroke-miterlimit="10"/><path d="M539.086 712.904s18.833-1.266 20.361-20.312Z" fill="#fff"/><path d="M539.086 712.904s18.833-1.266 20.361-20.312" stroke="#000" stroke-width="5" stroke-miterlimit="10"/><path d="M539.086 712.904s18.833-1.266 20.361-20.312" stroke="#000" stroke-width="5" stroke-miterlimit="10"/><path d="M136.656 702.745s7.053 17.1 23.065 13.964Z" fill="#fff"/><path d="M136.656 702.745s7.053 17.1 23.065 13.964" stroke="#000" stroke-width="5" stroke-miterlimit="10"/><path d="M136.656 702.745s7.053 17.1 23.065 13.964" stroke="#000" stroke-width="5" stroke-miterlimit="10"/></svg>

<svg width="800" height="900" viewBox="0 0 800 900" fill="none" xmlns="http://www.w3.org/2000/svg">
<path d="M348.341 463.418C348.341 463.418 318.323 468.422 283.3 503.443C248.279 538.465 220.761 590.997 220.761 590.997C220.761 590.997 215.759 603.505 208.254 608.508C200.749 613.511 168.229 638.526 155.721 663.542C143.214 688.558 123.201 731.083 123.201 731.083C123.201 731.083 115.696 741.09 138.21 763.603C138.21 763.603 144.289 769.68 167.383 769.073C171.273 768.973 173.594 764.635 171.511 761.351C166.821 753.95 158.223 742.027 145.715 731.083L240.773 633.523C240.773 633.523 335.832 550.972 340.836 540.966C355.615 564.188 374.267 586.076 395.082 604.034C399.602 607.932 404.105 611.909 409.14 615.147C414.65 618.695 423.04 624.434 428.391 628.521C434.672 633.308 435.553 637.486 440.872 643.109C445.383 647.883 450.273 652.306 455.237 656.607C467.951 667.619 481.414 677.803 495.257 687.345C509.258 696.988 524.659 708.143 540.96 713.571C540.96 713.571 555.969 718.575 560.972 731.081C565.976 743.588 580.985 751.094 595.994 751.094C611.004 751.094 618.508 748.593 641.022 751.094C648.053 751.874 666.038 746.091 658.533 743.59C651.027 741.089 588.489 716.074 580.985 713.571C574.423 711.383 445.193 569.047 413.382 533.46C408.811 528.35 418.384 520.953 418.384 520.953L348.341 463.418Z" fill="white" stroke="black" stroke-width="5" stroke-miterlimit="10"/>
<path d="M348.341 463.418C348.341 463.418 318.323 468.422 283.3 503.443C248.279 538.465 220.761 590.997 220.761 590.997C220.761 590.997 215.759 603.505 208.254 608.508C200.749 613.511 168.229 638.526 155.721 663.542C143.214 688.558 123.201 731.083 123.201 731.083C123.201 731.083 115.696 741.09 138.21 763.603C138.21 763.603 144.289 769.68 167.383 769.073C171.273 768.973 173.594 764.635 171.511 761.351C166.821 753.95 158.223 742.027 145.715 731.083L240.773 633.523C240.773 633.523 335.832 550.972 340.836 540.966C355.615 564.188 374.267 586.076 395.082 604.034C399.602 607.932 404.105 611.909 409.14 615.147C414.65 618.695 423.04 624.434 428.391 628.521C434.672 633.308 435.553 637.486 440.872 643.109C445.383 647.883 450.273 652.306 455.237 656.607C467.951 667.619 481.414 677.803 495.257 687.345C509.258 696.988 524.659 708.143 540.96 713.571C540.96 713.571 555.969 718.575 560.972 731.081C565.976 743.588 580.985 751.094 595.994 751.094C611.004 751.094 618.508 748.593 641.022 751.094C648.053 751.874 666.038 746.091 658.533 743.59C651.027 741.089 588.489 716.074 580.985 713.571C574.423 711.383 445.193 569.047 413.382 533.46C408.811 528.35 418.384 520.953 418.384 520.953L348.341 463.418Z" stroke="black" stroke-width="5" stroke-miterlimit="10"/>
<path d="M631.81 432.447C646.946 434.466 684.348 430.564 672.769 390.207C665.415 364.591 658.013 325.652 674.136 307.346C690.265 289.04 633.774 280.471 616.567 307.766C599.359 335.06 602.784 370.707 622.211 390.589C641.636 410.469 631.81 432.447 631.81 432.447Z" fill="#100200" stroke="black" stroke-width="5" stroke-miterlimit="10"/>
<path d="M453.406 400.879C462.949 397.647 477.911 396.025 480.552 392.216C483.186 388.407 486.232 324.182 489.873 308.367C493.513 292.551 503.76 253.109 514.81 231.867C525.859 210.624 536.908 189.381 540.548 173.567C544.188 157.752 540.076 125.167 562.979 127.081C595.337 129.782 557.333 166.908 553.863 180.723C550.392 194.54 534.197 249.603 528.088 267.23C521.981 284.855 519.342 288.665 519.471 314.869C519.6 341.075 525.433 410.07 525.433 410.07L497.3 413.764L450.75 415.923L453.406 400.879Z" fill="white" stroke="black" stroke-width="5" stroke-miterlimit="10"/>
<path d="M453.406 400.879C462.949 397.647 477.911 396.025 480.552 392.216C483.186 388.407 486.232 324.182 489.873 308.367C493.513 292.551 503.76 253.109 514.81 231.867C525.859 210.624 536.908 189.381 540.548 173.567C544.188 157.752 540.076 125.167 562.979 127.081C595.337 129.782 557.333 166.908 553.863 180.723C550.392 194.54 534.197 249.603 528.088 267.23C521.981 284.855 519.342 288.665 519.471 314.869C519.6 341.075 525.433 410.07 525.433 410.07L497.3 413.764L450.75 415.923L453.406 400.879Z" stroke="black" stroke-width="5" stroke-miterlimit="10"/>
<path d="M462.395 470.806C471.26 475.716 491.465 483.651 493.419 487.982C495.378 492.313 487.546 558.33 488.465 575.074C489.387 591.816 492.835 633.775 500.145 657.302C507.456 680.831 514.765 704.363 515.684 721.106C516.606 737.849 507.057 770.389 529.958 772.301C562.314 775.001 531.114 730.726 530.019 716.051C528.924 701.377 522.25 642.482 519.201 623.476C516.153 604.469 514.196 600.138 518.742 573.433C523.296 546.729 540.682 477.344 540.682 477.344L513.57 468.829L468.035 458.773L462.395 470.806Z" fill="white" stroke="black" stroke-width="5" stroke-miterlimit="10"/>
<path d="M462.395 470.806C471.26 475.716 491.465 483.651 493.419 487.982C495.378 492.313 487.546 558.33 488.465 575.074C489.387 591.816 492.835 633.775 500.145 657.302C507.456 680.831 514.765 704.363 515.684 721.106C516.606 737.849 507.057 770.389 529.958 772.301C562.314 775.001 531.114 730.726 530.019 716.051C528.924 701.377 522.25 642.482 519.201 623.476C516.153 604.469 514.196 600.138 518.742 573.433C523.296 546.729 540.682 477.344 540.682 477.344L513.57 468.829L468.035 458.773L462.395 470.806Z" stroke="black" stroke-width="5" stroke-miterlimit="10"/>
<path d="M541.821 472.448C542.375 477.344 540.549 478.888 540.549 478.888C540.549 478.888 522.514 472.746 507.929 480.8C493.345 488.857 491.807 507.276 491.423 511.881C491.423 511.881 432.972 512.897 418.384 520.955C385.385 507.077 361.526 488.181 348.34 463.419C360.24 459.775 393.767 431.851 406.052 423.601C418.329 415.354 453.404 400.881 453.404 400.881C453.404 400.881 470.143 405.766 490.864 407.497C511.588 409.229 525.597 408.08 525.597 408.08C525.597 408.08 525.019 414.988 531.734 417.869C538.45 420.748 573.181 421.33 585.078 417.687C596.975 414.041 577.782 449.536 577.782 449.536C577.782 449.536 541.859 440.422 541.638 456.835L541.472 463.522C541.397 466.497 541.488 469.493 541.821 472.448Z" fill="white" stroke="black" stroke-width="5" stroke-miterlimit="10"/>
<path d="M541.821 472.448C542.375 477.344 540.549 478.888 540.549 478.888C540.549 478.888 522.514 472.746 507.929 480.8C493.345 488.857 491.807 507.276 491.423 511.881C491.423 511.881 432.972 512.897 418.384 520.955C385.385 507.077 361.526 488.181 348.34 463.419C360.24 459.775 393.767 431.851 406.052 423.601C418.329 415.354 453.404 400.881 453.404 400.881C453.404 400.881 470.143 405.766 490.864 407.497C511.588 409.229 525.597 408.08 525.597 408.08C525.597 408.08 525.019 414.988 531.734 417.869C538.45 420.748 573.181 421.33 585.078 417.687C596.975 414.041 577.782 449.536 577.782 449.536C577.782 449.536 541.859 440.422 541.638 456.835L541.472 463.522C541.397 466.497 541.488 469.493 541.821 472.448Z" stroke="black" stroke-width="5" stroke-miterlimit="10"/>
<path d="M588.672 420.152C596.821 418.261 602.714 423.619 611.833 424.851C626.314 426.804 634.989 447.696 629.479 463.068C622.206 483.369 548.144 462.602 550.402 450.265C551.734 442.959 561.517 431.812 576.043 425.894C580.713 423.99 588.672 420.152 588.672 420.152Z" fill="white" stroke="black" stroke-width="5" stroke-miterlimit="10"/>
<path d="M588.672 420.152C596.821 418.261 602.714 423.619 611.833 424.851C626.314 426.804 634.989 447.696 629.479 463.068C622.206 483.369 548.144 462.602 550.402 450.265C551.734 442.959 561.517 431.812 576.043 425.894C580.713 423.99 588.672 420.152 588.672 420.152Z" stroke="black" stroke-width="5" stroke-miterlimit="10"/>
<path d="M618.324 469.17C605.463 465.078 584.865 448.635 593.915 433.649C604.087 416.801 590.963 421.019 587.102 421.434C583.238 421.845 574.113 428.8 573.676 426.689C573.239 424.578 590.593 404.172 609.985 407.215C629.377 410.257 636.093 419.966 638.972 431.342C641.855 442.723 637.987 458.802 629.171 466.687C620.355 474.575 618.324 469.17 618.324 469.17Z" fill="#100200" stroke="black" stroke-width="5" stroke-miterlimit="10"/>
<path d="M526.147 411.892C515.234 421.126 512.662 433.255 517.914 444.534C525.781 461.424 540.726 464.69 540.726 464.69" stroke="black" stroke-width="5" stroke-miterlimit="10"/>
<path d="M539.086 712.904C539.086 712.904 557.919 711.638 559.447 692.592Z" fill="white"/>
<path d="M539.086 712.904C539.086 712.904 557.919 711.638 559.447 692.592" stroke="black" stroke-width="5" stroke-miterlimit="10"/>
<path d="M539.086 712.904C539.086 712.904 557.919 711.638 559.447 692.592" stroke="black" stroke-width="5" stroke-miterlimit="10"/>
<path d="M136.656 702.745C136.656 702.745 143.709 719.845 159.721 716.709Z" fill="white"/>
<path d="M136.656 702.745C136.656 702.745 143.709 719.845 159.721 716.709" stroke="black" stroke-width="5" stroke-miterlimit="10"/>
<path d="M136.656 702.745C136.656 702.745 143.709 719.845 159.721 716.709" stroke="black" stroke-width="5" stroke-miterlimit="10"/>
</svg>
